X:1
T:Title
%%score { ( 1 3 ) | ( 2 4 ) }
L:1/8
Q:1/4=100
M:2/4
K:Eb
V:1 treble nm="Grand Piano"
V:3 treble 
V:2 bass 
V:4 bass 
V:1
 G>G _G=G | B2 B2 | e>e [Ad][Ge] | [FB]4 | B>B AG | [B,CG]2 [A,CF]2 | %6
w: T.~A.~Aldridge * * *||||||
 [G,B,E][G,B,E] [=A,EG][A,EF] | [B,DF]4 | [B,DF]>[B,DF] [B,EG][CE=A] | [B,DB]2 [B,DB]2 | %10
w: ||||
 [Gc][Fd] [Ee][Ec] | [DB]4 | B>B ed | d2 c2 | FA G[DF] | E4 | G>G _G=G | B2 B2 | e>e [Ad][Ge] | %19
w: |||||||||
 [FB]4 | B>B AG | [B,CG]2 [A,CF]2 | [G,B,E][B,EG] [DA][DF] | E4 |] %24
w: |||||
V:2
 [E,B,E]>[E,B,E] [E,=A,E][E,B,E] | [E,G,E]2 [E,G,E]2 | [G,B,E]>[G,B,E] [F,B,][E,B,] | [D,B,]4 | %4
 [E,G,E]>[E,G,E] [E,CE][E,B,E] | A,,2 A,,2 | B,,B,, B,,B,, | B,,4 | B,,>B,, E,C, | G,2 G,2 | %10
 [E,G,][D,=B,] [C,C][F,A,] | B,2 z2 | [E,G,E]>[E,G,E][K:treble] [G,B,E][G,=B,F] | %13
 [A,=B,F]2 [A,CE]2 | [A,CE][K:bass][F,CE] [B,E][B,,A,] | [E,G,]4 | %16
 [E,B,E]>[E,B,E] [E,=A,E][E,B,E] | [E,G,E]2 [F,A,D]2 | [G,B,E]>[G,B,E] [F,B,][E,B,] | [D,B,]4 | %20
 [E,G,E]>[E,G,E] [E,CE][E,B,E] | A,,2 A,,2 | B,,B,, [B,,F,][B,,A,] | [E,G,]4 |] %24
V:3
 x4 | x4 | x4 | x4 | x4 | x4 | x4 | x4 | x4 | x4 | x4 | z2 A,2 | x4 | x4 | x4 | x4 | x4 | x4 | x4 | %19
 x4 | x4 | x4 | x4 | x4 |] %24
V:4
 x4 | x4 | x4 | x4 | x4 | x4 | x4 | x4 | x4 | x4 | x4 | B,,4 | x2[K:treble] x2 | x4 | %14
 x[K:bass] x3 | x4 | x4 | x4 | x4 | x4 | x4 | x4 | x4 | x4 |] %24

